assets/Womans hat/Flat/womans_hat_flat.svg

<svg width="32" height="32" viewBox="0 0 32 32" fill="none" xmlns="http://www.w3.org/2000/svg">
<path d="M23.5 29H8.5C4.91 29 2 26.09 2 22.5C2 18.91 4.91 16 8.5 16H23.5C27.09 16 30 18.91 30 22.5C30 26.09 27.09 29 23.5 29Z" fill="#F3AD61"/>
<path d="M23.6299 18.9074V21.38C23.6299 22.88 22.4199 24.09 20.9199 24.09H10.41C8.90995 24.09 7.69995 22.88 7.69995 21.38V15.98C7.69995 15.8595 7.70777 15.7408 7.72292 15.6245C7.91572 12.8405 10.2358 10.65 13.06 10.65H18.28C21.2173 10.65 23.5933 13.0134 23.6295 15.9323C23.6298 15.9482 23.6299 15.9641 23.6299 15.98V15.9888C23.63 15.9926 23.63 15.9963 23.63 16V18.9C23.63 18.9025 23.63 18.905 23.6299 18.9074Z" fill="#F3C07B"/>
<path d="M10.03 21.23H21.31C22.59 21.23 23.63 20.19 23.63 18.9V18.5551C23.6332 18.5448 23.6365 18.5346 23.6396 18.5243L23.6099 21.73C23.5499 23.04 22.4699 24.06 21.1699 24.06H10.1499C8.82994 24.06 7.74994 23.02 7.70994 21.7L7.68994 18.51C7.69635 18.532 7.70303 18.5539 7.70996 18.5756V18.91C7.70996 20.19 8.74996 21.23 10.03 21.23ZM23.6396 18.5243C23.6431 18.5129 23.6466 18.5015 23.6499 18.49H23.6399L23.6396 18.5243Z" fill="#CA0B4A"/>
<path d="M18.9751 20.9407L15.1202 18.97C13.9902 18.4 12.6602 19.21 12.6602 20.48V24.08C12.6602 25.34 14.0002 26.16 15.1202 25.59L15.4408 25.426L14.0434 29.09C13.9434 29.36 14.2134 29.61 14.4734 29.49L15.4934 29.03C15.6534 28.96 15.8434 29.03 15.9134 29.19L16.3634 30.21C16.4734 30.47 16.8534 30.46 16.9534 30.2L18.9751 24.9088L21.0495 30.2C21.1495 30.46 21.5295 30.47 21.6395 30.21L22.0895 29.19C22.1595 29.03 22.3495 28.96 22.5095 29.03L23.5295 29.49C23.7895 29.61 24.0595 29.36 23.9595 29.09L22.5095 25.4261L22.8301 25.59C23.9501 26.16 25.2901 25.34 25.2901 24.08V20.48C25.2901 19.21 23.9601 18.4 22.8301 18.97L18.9751 20.9407Z" fill="#CA0B4A"/>
<path d="M17.3198 21.11C17.3198 20.2 18.0598 19.46 18.9698 19.46C19.8898 19.46 20.6298 20.2 20.6198 21.11V23.28C20.6198 23.6405 20.5036 23.9744 20.3067 24.2462L22.8299 22.9601C23.8999 22.4201 25.1499 23.12 25.2799 24.2701C25.1499 25.4201 23.8999 26.1201 22.8299 25.5801L20.281 24.2808C19.9792 24.6752 19.5038 24.93 18.9698 24.93C18.4408 24.93 17.9692 24.6798 17.667 24.2916L15.1199 25.5899C14.0499 26.1299 12.7999 25.4299 12.6699 24.2799C12.7999 23.1299 14.0499 22.4299 15.1199 22.9699L17.6384 24.2537C17.4382 23.9806 17.3198 23.6439 17.3198 23.28V21.11Z" fill="#990838"/>
</svg>

<svg xmlns="http://www.w3.org/2000/svg" width="32" height="32" fill="none"><path fill="#F3AD61" d="M23.5 29h-15a6.5 6.5 0 1 1 0-13h15a6.5 6.5 0 1 1 0 13Z"/><path fill="#F3C07B" d="M23.63 18.907v2.473c0 1.5-1.21 2.71-2.71 2.71H10.41c-1.5 0-2.71-1.21-2.71-2.71v-5.4c0-.12.008-.24.023-.356a5.35 5.35 0 0 1 5.337-4.974h5.22a5.35 5.35 0 0 1 5.35 5.33v2.927Z"/><path fill="#CA0B4A" d="M10.03 21.23h11.28c1.28 0 2.32-1.04 2.32-2.33v-.345l.01-.03-.03 3.205a2.442 2.442 0 0 1-2.44 2.33H10.15c-1.32 0-2.4-1.04-2.44-2.36l-.02-3.19.02.066v.334c0 1.28 1.04 2.32 2.32 2.32Zm13.61-2.706.01-.034h-.01v.034Z"/><path fill="#CA0B4A" d="m18.975 20.94-3.855-1.97c-1.13-.57-2.46.24-2.46 1.51v3.6c0 1.26 1.34 2.08 2.46 1.51l.32-.164-1.397 3.664c-.1.27.17.52.43.4l1.02-.46c.16-.07.35 0 .42.16l.45 1.02c.11.26.49.25.59-.01l2.022-5.291L21.05 30.2c.1.26.48.27.59.01l.45-1.02c.07-.16.26-.23.42-.16l1.02.46c.26.12.53-.13.43-.4l-1.45-3.664.321.164c1.12.57 2.46-.25 2.46-1.51v-3.6c0-1.27-1.33-2.08-2.46-1.51l-3.855 1.97Z"/><path fill="#990838" d="M17.32 21.11c0-.91.74-1.65 1.65-1.65.92 0 1.66.74 1.65 1.65v2.17c0 .36-.116.694-.313.966l2.523-1.286c1.07-.54 2.32.16 2.45 1.31a1.693 1.693 0 0 1-2.45 1.31l-2.549-1.3a1.648 1.648 0 0 1-2.614.012L15.12 25.59c-1.07.54-2.32-.16-2.45-1.31a1.693 1.693 0 0 1 2.45-1.31l2.518 1.284c-.2-.273-.318-.61-.318-.974v-2.17Z"/></svg>
